X:0
T:The Broomfield Wager/The Merry Broomfield
F:http://vwml.org/record/CJS2/10/601
S:Lucy White of Hambridge, Somerset
Z:Transcribed by Alice Baillie, January 2014
M:C
L:1/4
K:D
A | (A> F) G A | B2 G B | (A> G) E C | D3 D/2D/2 | 
w:A wa--ger a wa-ger with you_ I will lay I will
(C E) G A | (c B) d ^G |  A3 A/2 F/2 | D F A A |
w:lay_ you five hu_ndred to one That a maid shall go with 
d2 e c |  (B G) E C | D3 A/2 A/2 | c2 d B | 
w:me to some may_ bloo-ming fields And a maid back a-
A> F G C | D3 | | 
w:gain she shant re-turn

